**harm	**harte	**timestamp	**phrase	**leadinstrument	**kern
*M4/4	*M4/4	*	*	*	*
*G:	*G:	*	*	*	*G:
1r;	N	0	.	r	1r;
=1	=1	=1	=1	=1	=1
*>A_intro	*>A_intro	*>A_intro	*>A_intro	*>A_intro	*>A_intro
1I	G:maj6	1.377	newline	guitar	1G 1b 1dd
=2	=2	=2	=2	=2	=2
1I	G:maj6	2.763	.	guitar	1G 1b 1dd
=3	=3	=3	=3	=3	=3
1I	G:maj6	4.148	.	guitar	1G 1b 1dd
=4	=4	=4	=4	=4	=4
1I	G:maj6	5.534	.	guitar	1G 1b 1dd
=5	=5	=5	=5	=5	=5
*>B_verse	*>B_verse	*>B_verse	*>B_verse	*>B_verse	*>B_verse
1I	G:maj	6.92	newline	voice	1G 1b 1dd
=6	=6	=6	=6	=6	=6
1V7	D:7	8.292	.	voice	1D 1f# 1a 1cc
=7	=7	=7	=7	=7	=7
1I	G:maj	9.664	.	voice	1G 1b 1dd
=8	=8	=8	=8	=8	=8
1I	G:maj	11.036	.	voice	1G 1b 1dd
=9	=9	=9	=9	=9	=9
1I	G:maj	12.408	newline	voice	1G 1b 1dd
=10	=10	=10	=10	=10	=10
1I	G:maj	13.78	.	voice	1G 1b 1dd
=11	=11	=11	=11	=11	=11
1V7	D:7	15.152	.	voice	1D 1f# 1a 1cc
=12	=12	=12	=12	=12	=12
1V7	D:7	16.524	.	voice	1D 1f# 1a 1cc
=13	=13	=13	=13	=13	=13
1IV	C:maj	17.896	newline	voice	1C 1e 1g
=14	=14	=14	=14	=14	=14
1V7	D:7	19.286	.	voice	1D 1f# 1a 1cc
=15	=15	=15	=15	=15	=15
1I	G:maj	20.677	.	voice	1G 1b 1dd
=16	=16	=16	=16	=16	=16
1IV	C:maj	22.068	.	voice	1C 1e 1g
=17	=17	=17	=17	=17	=17
1I	G:maj	23.459	newline	voice	1G 1b 1dd
=18	=18	=18	=18	=18	=18
1V7	D:7	24.85	.	voice	1D 1f# 1a 1cc
=19	=19	=19	=19	=19	=19
1I	G:maj	26.241	.	voice	1G 1b 1dd
=20	=20	=20	=20	=20	=20
1I	G:maj	27.632	.	voice	1G 1b 1dd
=21	=21	=21	=21	=21	=21
*>B_verse	*>B_verse	*>B_verse	*>B_verse	*>B_verse	*>B_verse
1I	G:maj	29.023	newline	voice	1G 1b 1dd
=22	=22	=22	=22	=22	=22
1V7	D:7	30.41	.	voice	1D 1f# 1a 1cc
=23	=23	=23	=23	=23	=23
1I	G:maj	31.796	.	voice	1G 1b 1dd
=24	=24	=24	=24	=24	=24
1I	G:maj	33.183	.	voice	1G 1b 1dd
=25	=25	=25	=25	=25	=25
1I	G:maj	34.57	newline	voice	1G 1b 1dd
=26	=26	=26	=26	=26	=26
1I	G:maj	35.936	.	voice	1G 1b 1dd
=27	=27	=27	=27	=27	=27
1V7	D:7	37.302	.	voice	1D 1f# 1a 1cc
=28	=28	=28	=28	=28	=28
1V7	D:7	38.667	.	voice	1D 1f# 1a 1cc
=29	=29	=29	=29	=29	=29
1IV	C:maj	40.033	newline	voice	1C 1e 1g
=30	=30	=30	=30	=30	=30
1V7	D:7	41.417	.	voice	1D 1f# 1a 1cc
=31	=31	=31	=31	=31	=31
1I	G:maj	42.8	.	voice	1G 1b 1dd
=32	=32	=32	=32	=32	=32
1IV	C:maj	44.183	.	voice	1C 1e 1g
=33	=33	=33	=33	=33	=33
1I	G:maj	45.566	newline	voice	1G 1b 1dd
=34	=34	=34	=34	=34	=34
1V7	D:7	46.946	.	voice	1D 1f# 1a 1cc
=35	=35	=35	=35	=35	=35
1I	G:maj	48.326	.	voice	1G 1b 1dd
=36	=36	=36	=36	=36	=36
1I	G:maj	49.706	.	voice	1G 1b 1dd
=37	=37	=37	=37	=37	=37
*>B_verse	*>B_verse	*>B_verse	*>B_verse	*>B_verse	*>B_verse
1I	G:maj	51.086	newline	voice	1G 1b 1dd
=38	=38	=38	=38	=38	=38
1V7	D:7	52.459	.	voice	1D 1f# 1a 1cc
=39	=39	=39	=39	=39	=39
1I	G:maj	53.832	.	voice	1G 1b 1dd
=40	=40	=40	=40	=40	=40
1I	G:maj	55.206	.	voice	1G 1b 1dd
=41	=41	=41	=41	=41	=41
1I	G:maj	56.579	newline	voice	1G 1b 1dd
=42	=42	=42	=42	=42	=42
1I	G:maj	57.936	.	voice	1G 1b 1dd
=43	=43	=43	=43	=43	=43
1V7	D:7	59.292	.	voice	1D 1f# 1a 1cc
=44	=44	=44	=44	=44	=44
1V7	D:7	60.649	.	voice	1D 1f# 1a 1cc
=45	=45	=45	=45	=45	=45
1IV	C:maj	62.006	newline	voice	1C 1e 1g
=46	=46	=46	=46	=46	=46
1V7	D:7	63.374	.	voice	1D 1f# 1a 1cc
=47	=47	=47	=47	=47	=47
1I	G:maj	64.742	.	voice	1G 1b 1dd
=48	=48	=48	=48	=48	=48
1IV	C:maj	66.109	.	voice	1C 1e 1g
=49	=49	=49	=49	=49	=49
1I	G:maj	67.477	newline	voice	1G 1b 1dd
=50	=50	=50	=50	=50	=50
1V7	D:7	68.853	.	voice	1D 1f# 1a 1cc
=51	=51	=51	=51	=51	=51
1I	G:maj	70.229	.	voice	1G 1b 1dd
=52	=52	=52	=52	=52	=52
1I	G:maj	71.605	.	voice	1G 1b 1dd
=53	=53	=53	=53	=53	=53
*>C_solo	*>C_solo	*>C_solo	*>C_solo	*>C_solo	*>C_solo
1I	G:maj	72.981	newline	guitar	1G 1b 1dd
=54	=54	=54	=54	=54	=54
1V7	D:7	74.353	.	guitar	1D 1f# 1a 1cc
=55	=55	=55	=55	=55	=55
1I	G:maj	75.725	.	guitar	1G 1b 1dd
=56	=56	=56	=56	=56	=56
1I	G:maj	77.097	.	guitar	1G 1b 1dd
=57	=57	=57	=57	=57	=57
*>B_verse	*>B_verse	*>B_verse	*>B_verse	*>B_verse	*>B_verse
1I	G:maj	78.469	newline	voice	1G 1b 1dd
=58	=58	=58	=58	=58	=58
1V7	D:7	79.839	.	voice	1D 1f# 1a 1cc
=59	=59	=59	=59	=59	=59
1I	G:maj	81.209	.	voice	1G 1b 1dd
=60	=60	=60	=60	=60	=60
1I	G:maj	82.579	.	voice	1G 1b 1dd
=61	=61	=61	=61	=61	=61
1I	G:maj	83.949	newline	voice	1G 1b 1dd
=62	=62	=62	=62	=62	=62
1I	G:maj	85.311	.	voice	1G 1b 1dd
=63	=63	=63	=63	=63	=63
1V7	D:7	86.673	.	voice	1D 1f# 1a 1cc
=64	=64	=64	=64	=64	=64
1V7	D:7	88.035	.	voice	1D 1f# 1a 1cc
=65	=65	=65	=65	=65	=65
1IV	C:maj	89.397	newline	voice	1C 1e 1g
=66	=66	=66	=66	=66	=66
1V7	D:7	90.744	.	voice	1D 1f# 1a 1cc
=67	=67	=67	=67	=67	=67
1I	G:maj	92.092	.	voice	1G 1b 1dd
=68	=68	=68	=68	=68	=68
1IV	C:maj	93.439	.	voice	1C 1e 1g
=69	=69	=69	=69	=69	=69
1I	G:maj	94.786	newline	voice	1G 1b 1dd
=70	=70	=70	=70	=70	=70
1V7	D:7	96.156	.	voice	1D 1f# 1a 1cc
=71	=71	=71	=71	=71	=71
1I	G:maj	97.526	.	voice	1G 1b 1dd
=72	=72	=72	=72	=72	=72
1I	G:maj	98.896	.	voice	1G 1b 1dd
=73	=73	=73	=73	=73	=73
*>B2_verse	*>B2_verse	*>B2_verse	*>B2_verse	*>B2_verse	*>B2_verse
1I	G:maj	100.266	newline	voice	1G 1b 1dd
=74	=74	=74	=74	=74	=74
1V7	D:7	101.631	.	voice	1D 1f# 1a 1cc
=75	=75	=75	=75	=75	=75
1I	G:maj	102.996	.	voice	1G 1b 1dd
=76	=76	=76	=76	=76	=76
1I	G:maj	104.361	.	voice	1G 1b 1dd
=77	=77	=77	=77	=77	=77
1I	G:maj	105.726	newline	voice	1G 1b 1dd
=78	=78	=78	=78	=78	=78
1I	G:maj	107.088	.	voice	1G 1b 1dd
=79	=79	=79	=79	=79	=79
1V7	D:7	108.451	.	voice	1D 1f# 1a 1cc
=80	=80	=80	=80	=80	=80
1V7	D:7	109.814	.	voice	1D 1f# 1a 1cc
=81	=81	=81	=81	=81	=81
1IV	C:maj	111.176	newline	voice	1C 1e 1g
=82	=82	=82	=82	=82	=82
1V7	D:7	112.544	.	voice	1D 1f# 1a 1cc
=83	=83	=83	=83	=83	=83
1I	G:maj	113.913	.	voice	1G 1b 1dd
=84	=84	=84	=84	=84	=84
1IV	C:maj	115.281	.	voice	1C 1e 1g
=85	=85	=85	=85	=85	=85
1I	G:maj	116.649	newline	voice	1G 1b 1dd
=86	=86	=86	=86	=86	=86
1V7	D:7	118.022	.	voice	1D 1f# 1a 1cc
=87	=87	=87	=87	=87	=87
1I	G:maj	119.396	.	voice	1G 1b 1dd
=88	=88	=88	=88	=88	=88
1I	G:maj	120.769	.	voice	1G 1b 1dd
=89	=89	=89	=89	=89	=89
1I	G:maj	122.143	newline	voice	1G 1b 1dd
=90	=90	=90	=90	=90	=90
1V7	D:7	123.514	.	voice	1D 1f# 1a 1cc
=91	=91	=91	=91	=91	=91
1I	G:maj	124.886	.	voice	1G 1b 1dd
=92	=92	=92	=92	=92	=92
1I	G:maj	126.258	.	voice	1G 1b 1dd
=93	=93	=93	=93	=93	=93
1I	G:maj	127.629	newline	voice	1G 1b 1dd
=94	=94	=94	=94	=94	=94
1V7	D:7	128.988	.	voice	1D 1f# 1a 1cc
=95	=95	=95	=95	=95	=95
1I	G:maj	130.347	.	voice	1G 1b 1dd
=96	=96	=96	=96	=96	=96
1I	G:maj	131.706	.	voice	1G 1b 1dd
=97	=97	=97	=97	=97	=97
*>_fadeout	*>_fadeout	*>_fadeout	*>_fadeout	*>_fadeout	*>_fadeout
1I	G:maj	133.065	newline	guitar	1G 1b 1dd
=98	=98	=98	=98	=98	=98
1I	G:maj	134.331	.	guitar	1G 1b 1dd
=99	=99	=99	=99	=99	=99
1I	G:maj	135.598	.	guitar	1G 1b 1dd
=100	=100	=100	=100	=100	=100
1I	G:maj	136.864	.	guitar	1G 1b 1dd
=101	=101	=101	=101	=101	=101
1I	G:maj	138.131	.	guitar	1G 1b 1dd
=102	=102	=102	=102	=102	=102
1I	G:maj	139.398	.	guitar	1G 1b 1dd
1r;	N	140.664	.	r	1r;
1r;	N	144.052	.	r	1r;
*-	*-	*-	*-	*-	*-
!!!OTL: Six Days On The Road
!!!COC: Dave Dudley
!!!BillboardChartDate: 1963/06/15
!!!BillboardPeak: 32
!!!BillboardWeeksOnChart: 11
!!!SampleTargetRank: 76
!!!SampleActualRank: 75
!!!SampleID#: 0570
!!!RDF**harmony: **recip + pitch class of root + harmonic quality
!!!RDF**harte: Chris Harte's syntax, used by MIREX
!!!RDF**phrase: newline = linebreak in original McGill transcription
!!!RDF**timestamp: McGill audio timestamp in seconds
!!!RDF**leadinstrument: original McGill primary instrumentation annotation
!!!RDT: 2017/01/12/
!!!ENC: Nathaniel Condit-Schultz
!!!EST: Awating manual error checking and editing.
